X: 21241
T: The BRISK YOUNG LAD
%R: jig
B: "Edinburgh Repository of Music" v.2 p.124 #1
F: http://digital.nls.uk/special-collections-of-printed-music/pageturner.cfm?id=87776133
Z: 2015 John Chambers <jc:trillian.mit.edu>
M: 6/8
L: 1/8
K: Gm
D |\
G>AG B2c | {Bc}d>cB {B}A2G | F>GF A2B | cfd cAF |\
G>AG B2c | dcB ABc | d2G GA^F | (G3 d2) :|
|: A |\
B>cd/e/ f2g | fdB fdB | F>GA/B/ c2d | cfd cAF |\
B>cd/e/ f2g | fdB ce^f | g2G G>A^F | (G3 d2) :|

%%sep 2 1 500
%%sep 1 1 500

